X: 6
T: Old Favourite, The
Z: UPipes & harp
S: https://thesession.org/tunes/56#setting50384
R: jig
M: 6/8
L: 1/8
K: Gmaj
A|:B3 BAB|dBA G2 B|ded d2 B|ded B2 A|
B3 BAB|dBA G2 B|ded cBA|1 G3 G2 A:|2 G3 GBd||
|:g3 fgf|ege d2 B|ded d2 B|ded B2 d|
[1 g3 fgf|ege d2 B|dge dBA|G3 GBd:|
[2 g3 fgf|ege d2 B|dge dge|dge dB||

